X:1
T:An Bertha, Op.15
T:Dein Bildnis
T:Peter Cornelius
T:Peter Cornelius (trans. Mabelle Shapleigh) 
T:An Bertha, Op.15
T:4. Dein Bildnis
T:(Thine Image)
T:OpenScore (CC0)
T:OpenScore (CC0)
C:Peter Cornelius
Z:Peter Cornelius
Z:OpenScore (CC0)
%%score 1 { ( 2 4 6 ) | ( 3 5 ) }
L:1/8
Q:1/4=60
M:3/4
K:G
V:1 treble nm="Gesang\nVoice"
V:2 treble nm="Pianoforte"
V:4 treble 
V:6 treble 
V:3 bass 
V:5 bass 
V:1
"^Andante con moto" z | z6 | z6 | z6 | z6 | z6 | z2 z2 z D | B3/2 B/ B3 G | D E F3 F | %9
w: ||||||Halb|Däm- mer- schein, halb|Ker- zen- licht Sich|
w: ||||||The|fa- ding day, the|ta- pers' light Are|
 ^A ^c d c B e | ^c3 z z =A | A A F A d B | ^G4 z B | ^A3/2 B/ ^c2 d2 | B3/2 =c/ d4- | d4 z2 | %16
w: um dein lie- bes Bild- nis|flicht; Da|fal- len mir Ge- dan- ken|ein, Halb|Ker- zen- licht, halb|Däm- mer- schein.|_|
w: turned a- round thine im- age|bright, Then|in my breast sweet fan- cies|play, Part|ta- pers' light, part|fa- ding day.|_|
 z2 z2 z D | B3/2 B/ B3 d | g e g3 B | ^A3/2 A/ A3 ^c | f ^d f4- | %21
w: Halb|Däm- mer- schein, o|Küs- sens- zeit! halb|Ker- zen- licht, o|Braut- ge- leit!|
w: Part|fa- ding day, O|hour of bliss! Part|ta- pers' light, o|bri- dal kiss|
[Q:1/4=72]"_poco string." f2- f z z2 | z6[Q:1/4=65]"_rit." |[Q:1/4=66]"_Tempo" z2 z d ^c d | %24
w: _ _||Es kommt die|
w: _ _||The time is|
 g3 B e d | ^c3 c d e | e3 ^c ^A e | ^d3 d ^^c d | f3 ^d (3(^B^c) d | %29
w: Zeit, o za- ge|nicht, Dass uns der|Won- ne Kranz um-|flicht, Wo heim- lich|traut uns hül- * let|
w: near, the si- lent|hour, When hearts feel|all love's my- stic|power, When love is|veiled from mor- * tal|
 ^G4[Q:1/4=72]"^poco string." =B2 | ^A3/2 B/ ^c2 d2 | B3/2 =c/ d2 z2 | z2 z B e2- | e ^c e2- e z | %34
w: ein Halb|Ker- zen- licht, halb|Däm- mer- schein!|Halb Ker-|* zen- licht, _|
w: sight, Part|fa- ding day, part|ta- pers' light,|Part fa-|* ding day, _|
 z2 z =G (G^F/G/ | B4- B) A | G2 z D G A | B3 G A G | F3 F ^A3/2 B/ | ^c3 ^A c A | F F f2 =f2 | %41
w: halb Däm- * *|* * mer-|schein! Wo heim- lich|traut uns hül- let|ein Halb  Ker- zen-|licht, halb Däm- mer-|schein, halb Ker- zen-|
w: part ta- * *|* * per's|light. Then love is|veiled from mor- tal|sight, Mid fa- ding|day, mid ta- pers'|light, Mid fa- ding|
 e4 c2 |!p! B3/2 B/"^dim." B4- | B6- |!pp! B z !fermata!z2 |] %45
w: licht, halb|Däm- mer- schein!|_||
w: day, mid|ta- pers' light!|_||
V:2
!p! D | [B,GB]z/[B,GB]/ [B,GB]3 (a- | ag [GB]3) [^CGB] | [^CF^A]z/[CFA]/ [CFA]3 ([Ag]- | %4
 gf [F^A]3) ([Fe]- | ed F3) (d- | dc E2) G^F | [B,G] z [Bgb]z/[Bgb]/ [Bgb] z | %8
 z2 [^A^c]z/[Ac]/ [Ac]2- | [Ac]2 [FBd]2 [GBe]2 | [A^ce]z/[Ace]/ (e2 a2) | (([FA]4 d2)) | %12
 d>^c ^G2"_cresc." [Bc^g]2 | [^A^c^g]>[Acf]!<(! [Ac]2 [=cd=a]2 | [Bda]>[Bdg] [Bd]2 [Bdgb]2!<)! | %15
 [Bd^fb]>!mf![Bdf] ([Bdf][FBd]) ([FBd][DFB]) | ([FBd]>[EAc]) ([EAc][CEA] [A,CF][A,CD]) | %17
 [B,GB] z [B,GB][Bdg](([Bdg][GBd])) | %18
 (!tenuto![GBd]!tenuto![EGc]!tenuto![EGc]!>(!!tenuto![DGB]!tenuto![DGB]!>)!!tenuto![B,DG]) | %19
!p! [^A,^CF] z [A,F^A] [A^cf]((([Acf][FAc]))) | %20
 (!tenuto![F^A^c]!tenuto![^DFB] [DFB][^CFA][^A,CF][CFA]) | %21
 (([^CF^A][^B,F^G]).[B,FG])(.[CFA]([CFA][B,FG])) | (([=CF^G][CF=A]).[CFA])(.[CF^A]([CFA][B,=GB])) | %23
!p! [B,GB]z/[B,GB]/ [B,GB]4 | [B,GB]z/[B,GB]/ [B,GB]4 | [^CGB]z/[CGB]/ [CGB]4 | %26
 [^CEB]z/[CEB]/ [CE^A]4 | [^A,^D^A]z/[A,DA]/ [=A,D=A]4 | [^B,FA]z/[B,FA]/ [B,FA]2 [B,^D^G]2 | %29
 ^G4-"^poco string." [=B,^DG]2 | (^G>F ^C2) (3(=C/"_cresc."=D/=A/(3c/d/a/) | %31
 (a>g d2)!<(! (3(B,/^D/A/(3B/^d/b/)!<)! | %32
!mf! ([Be^gb]>[Beg])(!tenuto![Beg]!tenuto![^GBe]!tenuto![GBe]!tenuto![EG^c]) | %33
 (!tenuto![E^G^c]!tenuto![^CEA]!tenuto![CEA]!tenuto![B,E^G]!tenuto![^G,B,E]!tenuto![G,C]) | %34
 ((([^^F,^A,^C]6 | ((([=G,B,E]4))) [F,CD]2))) |!p! [B,DB]z/[B,DB]/ [B,DB]3 (a- | ag B3) [^CGB] | %38
 [^CF^A]z/[CFA]/ [CFA]3 ([Ag]- | gf) [F^A]3 ([Fe]- | ed F2) (d2- | dc E2) (GF) | %42
 [B,G]2- [B,G]z/!pp![B,G]/ [B,G]2- | [B,G]z/[B,G]/ [B,G]4- | [B,G] z !fermata!z2 |] %45
V:3
 z | [G,,G,]z/[G,,G,]/ [G,,G,]3 (D- | D^D E3) E, | F,z/F,/ F,3 (^C- | CD E3) (^A,- | %5
 A,B, D3) (^G,- | ^G,A, C2 A,2) | G, z [G,D]z/[G,D]/ [G,D] z | z2 Fz/F/ F2- | F2 B,2 E,2 | A,6 | %11
 (D4 B,2) | ^C4 ^E2 | [F,^CF]>[F,CF] [F,CF]2 [D,F,D]2 | [G,D]>[G,D] [G,D]2 [=F,,=F,]2 | %15
 [^F,,^F,]6 | [D,,D,]2 [D,,D,]4 | [G,,,G,,] z [G,,G,] z z2 | z2 z2 z [^E,,^E,] | %19
 [F,,F,] z [F,,F,] z z2 | z2 z2 z [F,,F,] | [^D,,^D,]6 | [=D,,=D,]6 | [G,,G,]z/[G,,G,]/ [G,,G,]4 | %24
 [E,,E,]z/[E,,E,]/ [E,,E,]4 | [A,,E,]z/[A,,E,]/ [A,,E,]4 | [F,,F,]z/[F,,F,]/ [F,,F,]4 | %27
 [B,,,B,,]z/[B,,,B,,]/ [B,,,B,,]4 | [^G,,,^G,,]z/[G,,,G,,]/ [G,,,G,,]4 | ([E,,E,]4 [^E,,^E,]2) | %30
 [F,,F,]4 [D,,F,]2 | [G,,G,]4 [B,,F,B,]2 | [E,,E,]6- | [E,,E,]4- [E,,E,][E,,E,] | %34
 ([E,,E,]2 (([^D,,^D,]4) | [=D,,=D,]4-)) [D,,D,]2 | [G,,,G,,]>[G,,G,] [G,,G,]3 (D- | %37
 D^D E3) [E,,E,] | [F,,F,]>[F,,F,] [F,,F,]3 (^C- | ^CD E3) (^A,- | A,B, !arpeggio!D2) (^G,2- | %41
 G,A, C2) A,2 | G,2- G,z/D,/ D,2- | [G,,D,]z/[G,,D,]/ [G,,D,]4- | [G,,D,] z !fermata!z2 |] %45
V:4
 x | x5 B- | B2 x4 | x6 | A2 x4 | F2 F3 =F- | =FE E2 C2 | x6 | x6 | x6 | x2 [A^c]4 | x4 F2 | %12
 ^E4 x2 | x6 | x6 | x6 | x6 | x6 | x6 | x6 | x6 | x6 | x6 | x6 | x6 | x6 | x6 | x6 | x6 | %29
 (^D2 ^C2) x2 | [^A,^C]2 A,2 x2 | !^!B2 B2 x2 | x6 | x6 | x6 | x6 | x5 B- | B2 G3 x | x6 | ^A2 x4 | %40
 F2 x2 (=F2 | E4) C2 | x6 | x6 | x4 |] %45
V:5
 x | x5 G,- | G,2 G,3 E,, | F,,z/F,,/ F,,3 F,- | F,2 F,3 B,,- | B,,2 B,,3 B,,- | B,,C, C,2 D,2 | %7
 G,, x5 | x6 | x6 | x6 | x6 | x6 | x6 | x6 | x6 | x6 | x6 | x6 | x6 | x6 | x6 | x6 | x6 | x6 | x6 | %26
 x6 | x6 | x6 | x6 | x6 | x6 | x6 | x6 | x6 | x6 | x5 G,- | G,2 G,3 x | x5 F,- | F,2 F,3 B,,- | %40
 B,,2 B,,2 B,,2 | C,4 D,2 | G,,2- G,, x/ G,,/ G,,2- | x6 | x4 |] %45
V:6
 x | x6 | x6 | x6 | x6 | x6 | x6 | x6 | x6 | x6 | x6 | x6 | x6 | x6 | x6 | x6 | x6 | x6 | x6 | x6 | %20
 x6 | x6 | x6 | x6 | x6 | x6 | x6 | x6 | x6 | ^G,4 x2 | x6 | x6 | x6 | x6 | x6 | x6 | x6 | x6 | %38
 x6 | x6 | x6 | x6 | x6 | x6 | x4 |] %45

